X:1
T:Atlantic Avenue, 77.77 D
T:Atlantic Avenue, 77.77 D
T:E. D. Keck, 1891
T:Public Domain Courtesy of the Cyber Hymnal™
C:E. D. Keck, 1891
Z:Public Domain
Z:Courtesy of the Cyber Hymnal™
%%score ( 1 2 ) ( 3 4 )
L:1/8
Q:1/4=115
M:3/4
K:D
V:1 treble 
V:2 treble 
V:3 bass 
V:4 bass 
V:1
 ([DF]2 [CG]2) [CE]2 | [DF]4 [Dd]2 | ([Fd]2 [Ge]2) [Ec]2 | [Fd]6 | ([Bd]2 [Ac]2) [GB]2 | %5
 (A2 d2) [DF]2 | [CE]4 [D^G]2 | [CA]6 | ([DF]2 [CG]2) [CE]2 | [DF]4 [Dd]2 | ([Fd]2 [Ge]2) [Ec]2 | %11
 [Fd]6 | ([Bd]2 [Ac]2) [GB]2 | (A2 d2) [DF]2 | E2 G2 [A,C]2 | [A,D]6 | [FA]4 [EG]2 | [DF]4 [Dd]2 | %18
 [DF]4 [CE]2 | [CE]6 | [Ge]4 [Fd]2 | [Ec]4 [DB]2 | [Cc]4 [EG]2 | [DF]6 | [FA]4 [EG]2 | %25
 [DF]4 [Fd]2 | ([DF]2 [EG]2) [FA]2 | [GB]6 | [Ge]4 [Gd]2 | c4 [GA]2 |"^riten." (A2 B2) [Gc]2 | %31
 [Fd]6 |] %32
V:2
 x6 | x6 | x6 | x6 | x6 | F4 x2 | x6 | x6 | x6 | x6 | x6 | x6 | x6 | F4 x2 | C4 x2 | x6 | x6 | x6 | %18
 x6 | x6 | x6 | x6 | x6 | x6 | x6 | x6 | x6 | x6 | x6 | (G2 E2) x2 | G4 x2 | x6 |] %32
V:3
 A,4 [A,,A,]2 | [D,A,]4 [F,A,]2 | A,4 [A,,A,]2 | [D,A,]6 | (G,2 B,2) [G,D]2 | (D2 A,2) [D,A,]2 | %6
 [E,A,]4 [E,B,]2 | [A,,A,]6 | A,4 [A,,G,]2 | [D,A,]4 [F,A,]2 | A,4 [A,,A,]2 | [D,A,]6 | %12
 (G,2 B,2) [G,D]2 | (D2 A,2) [D,A,]2 | [A,,A,]4 [A,,G,]2 | [D,F,]6 | [D,D]4 [D,A,]2 | %17
 [D,A,]4 [F,A,]2 | A,4 [A,,A,]2 | [A,,A,]6 | [A,,A,]4 [A,,A,]2 | [A,,A,]4 [A,,A,]2 | %22
 [A,,A,]4 [A,,A,]2 | [D,A,]6 | [D,D]4 [D,A,]2 | [D,A,]4 [D,A,]2 | [D,A,]4 [D,D]2 | [G,D]6 | %28
 [G,B,]4 [G,B,]2 | A,4 [A,C]2 | [A,,C]4 [A,,A,]2 | [D,A,]6 |] %32
V:4
 (D,2 E,2) x2 | x6 | A,4 x2 | x6 | G,4 x2 | D,4 x2 | x6 | x6 | (D,2 E,2) x2 | x6 | A,4 x2 | x6 | %12
 G,4 x2 | D,4 x2 | x6 | x6 | x6 | x6 | A,4 x2 | x6 | x6 | x6 | x6 | x6 | x6 | x6 | x6 | x6 | x6 | %29
 A,4 x2 | x6 | x6 |] %32

